src/img/HomePage/Crystals/Down3.svg

<?xml version="1.0" encoding="UTF-8"?> <svg xmlns="http://www.w3.org/2000/svg" width="149" height="417" viewBox="0 0 149 417" fill="none"> <path d="M107.174 22.641C110.905 37.3713 114.735 49.8976 115.681 50.4793C118.854 52.4314 122.257 75.4982 122.867 99.237C123.2 112.178 123.65 125.856 123.867 129.634C124.084 133.411 123.122 129.452 121.732 120.833C120.34 112.214 119.644 101.764 120.181 97.6114C120.947 91.7081 120.109 89.6214 116.336 88.0381C113.683 86.9252 111.135 84.4396 110.674 82.5109C110.151 80.3213 111.75 80.5774 114.926 83.1945C120.877 88.0928 120.854 87.4829 114.178 62.321C106.033 31.6166 104.434 27.0746 101.29 25.7114C99.3388 24.8655 99.4034 23.0954 101.464 20.9463C103.268 19.0673 103.874 16.9955 102.812 16.341C101.748 15.6872 95.77 28.6392 89.5269 45.1246C69.474 98.0661 36.2556 164.478 28.9544 166.221C23.4793 167.529 19.7692 177.873 20.765 189.065L21.7321 199.974L23.3855 186.183C24.2951 178.596 25.887 172.911 26.9249 173.549C30.5838 175.797 40.8659 164.19 49.8372 147.689C54.8255 138.51 59.5261 131.38 60.2807 131.846C61.0373 132.309 57.6566 147.264 52.7699 165.08C42.4691 202.631 40.7562 218.132 40.1632 279.113C39.8652 309.837 40.9418 326.978 43.6105 334.002C46.6743 342.063 46.62 345.744 43.3478 351.46C41.0683 355.444 39.9749 359.181 40.9175 359.758C41.8608 360.338 53.2651 351.833 66.2575 340.857C79.2525 329.881 90.4814 321.271 91.2152 321.72C91.947 322.172 81.9312 331.651 68.9555 342.79C21.9064 383.177 8.67373 396.109 6.39235 403.934C4.3639 410.894 4.61908 411.986 8.59248 413.324C11.6971 414.371 14.3851 412.996 17.2809 408.888C25.5873 397.101 44.8046 379.409 82.507 348.842C103.614 331.726 123.478 316.172 126.654 314.274L132.422 310.822L125.561 306.606L118.7 302.388L107.902 311.24C101.963 316.109 96.3995 319.66 95.541 319.133C94.68 318.606 99.4971 313.493 106.244 307.771L118.509 297.367L124.767 302.181C130.86 306.87 131.095 306.839 133.619 301.09C135.046 297.841 136.047 294.324 135.845 293.278C135.644 292.229 137.697 284.915 140.407 277.021C146.242 260.029 146.141 258.914 138.697 258.369C135.557 258.141 133.386 256.749 133.873 255.279C134.357 253.807 136.432 252.827 138.48 253.098C141.434 253.49 140.195 245.233 132.514 213.324C122.454 171.518 118.991 145.812 122.89 141.893C124.381 140.392 125.401 143.747 125.876 151.705C126.272 158.356 131.532 186.301 137.568 213.807L148.539 263.817L142.502 283.648C139.179 294.554 136.219 305.415 135.924 307.783C135.629 310.151 125.995 319.177 114.514 327.84C82.0673 352.32 44.1178 385.012 27.6869 402.641C14.599 416.68 12.0541 418.374 7.2606 416.238C4.24981 414.896 1.39211 413.692 0.91318 413.564C0.171548 413.363 6.68164 365.674 9.91246 347.619C10.4851 344.418 10.8319 336.189 10.6792 329.333C10.5265 322.476 11.0429 311.073 11.8255 303.994C14.6651 278.339 17.3777 203.478 15.9315 190.703C14.688 179.709 15.6987 176.129 22.2581 168.305C33.461 154.944 51.0723 125.824 60.0018 105.892C87.3535 44.8525 88.1555 42.706 98.6286 2.61C100.117 -3.09837 101.439 -0.00234107 107.174 22.641Z" fill="#FA007A"></path> <path d="M100.43 35.6644C99.2654 34.0291 98.5576 31.0649 98.8572 29.0773C99.1549 27.0929 100.107 28.4308 100.972 32.0537C101.837 35.6766 101.593 37.3029 100.43 35.6644Z" fill="#FA007A"></path> <path d="M104.832 71.5152C101.287 65.126 97.5544 44.3134 99.4086 41.2778C99.7616 40.7033 102.046 48.9307 104.487 59.5606C107.96 74.6896 108.035 77.2897 104.832 71.5152Z" fill="#FA007A"></path> <path d="M126.171 213.385C125.023 211.773 124.129 208.227 124.186 205.503C124.243 202.78 125.182 204.098 126.273 208.433C127.363 212.768 127.319 214.996 126.171 213.385Z" fill="#FA007A"></path> <path d="M128.799 239.858C126.167 233.594 124.306 225.894 124.668 222.747C125.059 219.331 126.986 223.915 129.455 234.137C133.382 250.411 133.352 250.691 128.799 239.858Z" fill="#FA007A"></path> <path d="M116.489 293.43C115.336 288.684 125.485 262.93 128.82 262.133C130.298 261.781 129.634 265.81 127.343 271.086C125.052 276.363 121.864 284.331 120.255 288.793C118.649 293.254 116.953 295.341 116.489 293.43Z" fill="#FA007A"></path> </svg>

<svg xmlns="http://www.w3.org/2000/svg" width="149" height="417" fill="none"><path d="M107.174 22.641c3.731 14.73 7.561 27.257 8.507 27.838 3.173 1.952 6.576 25.02 7.186 48.758.333 12.941.783 26.619 1 30.397.217 3.777-.745-.182-2.135-8.801-1.392-8.619-2.088-19.069-1.551-23.222.766-5.903-.072-7.99-3.845-9.573-2.653-1.113-5.201-3.598-5.662-5.527-.523-2.19 1.076-1.934 4.252.684 5.951 4.898 5.928 4.288-.748-20.874-8.145-30.704-9.744-35.246-12.888-36.61-1.951-.845-1.887-2.616.174-4.765 1.804-1.879 2.41-3.95 1.348-4.605-1.064-.654-7.042 12.298-13.285 28.784C69.474 98.066 36.256 164.478 28.954 166.22c-5.475 1.308-9.185 11.652-8.189 22.844l.967 10.909 1.654-13.791c.91-7.587 2.501-13.272 3.539-12.634 3.659 2.248 13.94-9.359 22.912-25.86 4.988-9.179 9.69-16.309 10.444-15.843.756.463-2.624 15.418-7.511 33.234-10.3 37.551-12.014 53.052-12.607 114.033-.298 30.724.779 47.865 3.448 54.889 3.063 8.061 3.009 11.742-.263 17.458-2.28 3.984-3.373 7.721-2.43 8.298.943.58 12.347-7.925 25.34-18.901 12.995-10.976 24.223-19.586 24.957-19.137.732.452-9.284 9.931-22.26 21.07-47.049 40.387-60.281 53.319-62.563 61.144-2.028 6.96-1.773 8.052 2.2 9.39 3.105 1.047 5.793-.328 8.689-4.436 8.306-11.787 27.524-29.479 65.226-60.046 21.107-17.116 40.971-32.67 44.147-34.568l5.768-3.452-6.861-4.216-6.861-4.218-10.798 8.852c-5.939 4.869-11.502 8.42-12.361 7.893-.861-.527 3.956-5.64 10.703-11.362l12.265-10.404 6.258 4.814c6.093 4.689 6.328 4.658 8.852-1.091 1.427-3.249 2.428-6.766 2.226-7.812-.201-1.049 1.852-8.363 4.562-16.257 5.835-16.992 5.734-18.107-1.71-18.652-3.14-.228-5.311-1.62-4.824-3.09.484-1.472 2.559-2.452 4.607-2.181 2.954.392 1.715-7.865-5.966-39.774-10.06-41.806-13.523-67.512-9.624-71.431 1.491-1.501 2.511 1.854 2.986 9.812.396 6.651 5.656 34.596 11.692 62.102l10.971 50.01-6.037 19.831c-3.323 10.906-6.283 21.767-6.578 24.135-.295 2.368-9.929 11.394-21.41 20.057-32.447 24.48-70.396 57.172-86.827 74.801-13.088 14.039-15.633 15.733-20.426 13.597-3.011-1.342-5.869-2.546-6.348-2.674-.741-.201 5.769-47.89 9-65.945.572-3.201.919-11.43.766-18.286-.152-6.857.364-18.26 1.146-25.339 2.84-25.655 5.553-100.516 4.107-113.291-1.244-10.994-.233-14.574 6.326-22.398 11.203-13.361 28.814-42.481 37.744-62.413C87.353 44.852 88.156 42.706 98.629 2.61c1.488-5.708 2.81-2.612 8.545 20.031Z" fill="#FA007A"/><path d="M100.43 35.664c-1.165-1.635-1.872-4.6-1.573-6.587.298-1.984 1.25-.646 2.115 2.977.865 3.623.621 5.249-.542 3.61ZM104.832 71.515c-3.545-6.389-7.278-27.202-5.423-30.237.353-.575 2.637 7.653 5.078 18.283 3.473 15.129 3.548 17.729.345 11.954ZM126.171 213.385c-1.148-1.612-2.042-5.158-1.985-7.882.057-2.723.996-1.405 2.087 2.93 1.09 4.335 1.046 6.563-.102 4.952ZM128.799 239.858c-2.632-6.264-4.493-13.964-4.131-17.111.391-3.416 2.318 1.168 4.787 11.39 3.927 16.274 3.897 16.554-.656 5.721ZM116.489 293.43c-1.153-4.746 8.996-30.5 12.331-31.297 1.478-.352.814 3.677-1.477 8.953-2.291 5.277-5.479 13.245-7.088 17.707-1.606 4.461-3.302 6.548-3.766 4.637Z" fill="#FA007A"/></svg>
